images/3234954.svg

<?xml version="1.0" encoding="UTF-8"?>
<svg xmlns="http://www.w3.org/2000/svg" xmlns:xlink="http://www.w3.org/1999/xlink" width="300pt" height="300pt" viewBox="0 0 300 300" version="1.1">
<defs>
<g>
<symbol overflow="visible" id="glyph0-0">
<path style="stroke:none;" d="M 0.453125 1.59375 L 0.453125 -6.34375 L 4.953125 -6.34375 L 4.953125 1.59375 Z M 0.953125 1.09375 L 4.453125 1.09375 L 4.453125 -5.84375 L 0.953125 -5.84375 Z M 0.953125 1.09375 "/>
</symbol>
<symbol overflow="visible" id="glyph0-1">
<path style="stroke:none;" d="M 3.546875 -5.953125 C 2.898438 -5.953125 2.382812 -5.710938 2 -5.234375 C 1.625 -4.753906 1.4375 -4.101562 1.4375 -3.28125 C 1.4375 -2.445312 1.625 -1.789062 2 -1.3125 C 2.382812 -0.832031 2.898438 -0.59375 3.546875 -0.59375 C 4.191406 -0.59375 4.703125 -0.832031 5.078125 -1.3125 C 5.453125 -1.789062 5.640625 -2.445312 5.640625 -3.28125 C 5.640625 -4.101562 5.453125 -4.753906 5.078125 -5.234375 C 4.703125 -5.710938 4.191406 -5.953125 3.546875 -5.953125 Z M 3.546875 -6.6875 C 4.460938 -6.6875 5.195312 -6.375 5.75 -5.75 C 6.300781 -5.132812 6.578125 -4.3125 6.578125 -3.28125 C 6.578125 -2.238281 6.300781 -1.410156 5.75 -0.796875 C 5.195312 -0.179688 4.460938 0.125 3.546875 0.125 C 2.617188 0.125 1.878906 -0.179688 1.328125 -0.796875 C 0.773438 -1.410156 0.5 -2.238281 0.5 -3.28125 C 0.5 -4.3125 0.773438 -5.132812 1.328125 -5.75 C 1.878906 -6.375 2.617188 -6.6875 3.546875 -6.6875 Z M 3.546875 -6.6875 "/>
</symbol>
<symbol overflow="visible" id="glyph0-2">
<path style="stroke:none;" d="M 0.890625 -6.5625 L 2.078125 -6.5625 L 4.984375 -1.078125 L 4.984375 -6.5625 L 5.84375 -6.5625 L 5.84375 0 L 4.65625 0 L 1.75 -5.484375 L 1.75 0 L 0.890625 0 Z M 0.890625 -6.5625 "/>
</symbol>
</g>
</defs>
<g id="surface47385">
<rect x="0" y="0" width="300" height="300" style="fill:rgb(100%,100%,100%);fill-opacity:1;stroke:none;"/>
<path style="fill:none;stroke-width:1.2;stroke-linecap:butt;stroke-linejoin:miter;stroke:rgb(0%,0%,0%);stroke-opacity:1;stroke-miterlimit:10;" d="M 35.25 178.78125 L 42.875 184.339844 "/>
<path style="fill:none;stroke-width:1.2;stroke-linecap:butt;stroke-linejoin:miter;stroke:rgb(100%,0%,0%);stroke-opacity:1;stroke-miterlimit:10;" d="M 42.875 184.339844 L 50.496094 189.898438 "/>
<path style="fill:none;stroke-width:1.2;stroke-linecap:butt;stroke-linejoin:miter;stroke:rgb(100%,0%,0%);stroke-opacity:1;stroke-miterlimit:10;" d="M 50.496094 189.898438 L 59.121094 186.078125 "/>
<path style="fill:none;stroke-width:1.2;stroke-linecap:butt;stroke-linejoin:miter;stroke:rgb(0%,0%,0%);stroke-opacity:1;stroke-miterlimit:10;" d="M 59.121094 186.078125 L 67.75 182.253906 "/>
<path style=" stroke:none;fill-rule:nonzero;fill:rgb(100%,100%,100%);fill-opacity:1;" d="M 46.496094 184.398438 L 54.496094 184.398438 L 54.496094 195.398438 L 46.496094 195.398438 Z M 46.496094 184.398438 "/>
<g style="fill:rgb(100%,0%,0%);fill-opacity:1;">
  <use xlink:href="#glyph0-1" x="46.496094" y="193.061523"/>
</g>
<path style="fill:none;stroke-width:1.2;stroke-linecap:butt;stroke-linejoin:miter;stroke:rgb(0%,0%,0%);stroke-opacity:1;stroke-miterlimit:10;" d="M 67.75 182.253906 L 69.753906 163.492188 "/>
<path style="fill:none;stroke-width:1.2;stroke-linecap:butt;stroke-linejoin:miter;stroke:rgb(0%,0%,0%);stroke-opacity:1;stroke-miterlimit:10;" d="M 72.363281 180.851562 L 73.96875 165.839844 "/>
<path style="fill:none;stroke-width:1.2;stroke-linecap:butt;stroke-linejoin:miter;stroke:rgb(0%,0%,0%);stroke-opacity:1;stroke-miterlimit:10;" d="M 82.996094 193.375 L 67.75 182.253906 "/>
<path style="fill:none;stroke-width:1.2;stroke-linecap:butt;stroke-linejoin:miter;stroke:rgb(0%,0%,0%);stroke-opacity:1;stroke-miterlimit:10;" d="M 69.753906 163.492188 L 87.007812 155.847656 "/>
<path style="fill:none;stroke-width:1.2;stroke-linecap:butt;stroke-linejoin:miter;stroke:rgb(0%,0%,0%);stroke-opacity:1;stroke-miterlimit:10;" d="M 87.007812 155.847656 L 102.253906 166.964844 "/>
<path style="fill:none;stroke-width:1.2;stroke-linecap:butt;stroke-linejoin:miter;stroke:rgb(0%,0%,0%);stroke-opacity:1;stroke-miterlimit:10;" d="M 85.917969 160.546875 L 98.113281 169.441406 "/>
<path style="fill:none;stroke-width:1.2;stroke-linecap:butt;stroke-linejoin:miter;stroke:rgb(0%,0%,0%);stroke-opacity:1;stroke-miterlimit:10;" d="M 102.253906 166.964844 L 100.25 185.730469 "/>
<path style="fill:none;stroke-width:1.2;stroke-linecap:butt;stroke-linejoin:miter;stroke:rgb(0%,0%,0%);stroke-opacity:1;stroke-miterlimit:10;" d="M 102.253906 166.964844 L 119.507812 159.320312 "/>
<path style="fill:none;stroke-width:1.2;stroke-linecap:butt;stroke-linejoin:miter;stroke:rgb(0%,0%,0%);stroke-opacity:1;stroke-miterlimit:10;" d="M 100.25 185.730469 L 82.996094 193.375 "/>
<path style="fill:none;stroke-width:1.2;stroke-linecap:butt;stroke-linejoin:miter;stroke:rgb(0%,0%,0%);stroke-opacity:1;stroke-miterlimit:10;" d="M 96.722656 182.433594 L 82.921875 188.550781 "/>
<path style="fill:none;stroke-width:1.2;stroke-linecap:butt;stroke-linejoin:miter;stroke:rgb(0%,0%,0%);stroke-opacity:1;stroke-miterlimit:10;" d="M 119.507812 159.320312 L 127.128906 164.882812 "/>
<path style="fill:none;stroke-width:1.2;stroke-linecap:butt;stroke-linejoin:miter;stroke:rgb(0%,0%,100%);stroke-opacity:1;stroke-miterlimit:10;" d="M 127.128906 164.882812 L 134.753906 170.441406 "/>
<path style="fill:none;stroke-width:1.2;stroke-linecap:butt;stroke-linejoin:miter;stroke:rgb(0%,0%,0%);stroke-opacity:1;stroke-miterlimit:10;" d="M 123.648438 156.847656 L 129.746094 161.292969 "/>
<path style="fill:none;stroke-width:1.2;stroke-linecap:butt;stroke-linejoin:miter;stroke:rgb(0%,0%,100%);stroke-opacity:1;stroke-miterlimit:10;" d="M 129.746094 161.292969 L 135.84375 165.742188 "/>
<path style="fill:none;stroke-width:1.2;stroke-linecap:butt;stroke-linejoin:miter;stroke:rgb(0%,0%,0%);stroke-opacity:1;stroke-miterlimit:10;" d="M 121.511719 140.558594 L 119.507812 159.320312 "/>
<path style="fill:none;stroke-width:1.2;stroke-linecap:butt;stroke-linejoin:miter;stroke:rgb(0%,0%,100%);stroke-opacity:1;stroke-miterlimit:10;" d="M 134.753906 170.441406 L 143.378906 166.617188 "/>
<path style="fill:none;stroke-width:1.2;stroke-linecap:butt;stroke-linejoin:miter;stroke:rgb(0%,0%,0%);stroke-opacity:1;stroke-miterlimit:10;" d="M 143.378906 166.617188 L 152.007812 162.796875 "/>
<path style=" stroke:none;fill-rule:nonzero;fill:rgb(100%,100%,100%);fill-opacity:1;" d="M 131.753906 164.941406 L 138.753906 164.941406 L 138.753906 175.941406 L 131.753906 175.941406 Z M 131.753906 164.941406 "/>
<g style="fill:rgb(0%,0%,100%);fill-opacity:1;">
  <use xlink:href="#glyph0-2" x="131.753906" y="173.604492"/>
</g>
<path style="fill:none;stroke-width:1.2;stroke-linecap:butt;stroke-linejoin:miter;stroke:rgb(0%,0%,0%);stroke-opacity:1;stroke-miterlimit:10;" d="M 152.007812 162.796875 L 167.253906 173.914062 "/>
<path style="fill:none;stroke-width:1.2;stroke-linecap:butt;stroke-linejoin:miter;stroke:rgb(0%,0%,0%);stroke-opacity:1;stroke-miterlimit:10;" d="M 156.148438 160.320312 L 168.34375 169.214844 "/>
<path style="fill:none;stroke-width:1.2;stroke-linecap:butt;stroke-linejoin:miter;stroke:rgb(0%,0%,0%);stroke-opacity:1;stroke-miterlimit:10;" d="M 154.011719 144.03125 L 152.007812 162.796875 "/>
<path style="fill:none;stroke-width:1.2;stroke-linecap:butt;stroke-linejoin:miter;stroke:rgb(0%,0%,0%);stroke-opacity:1;stroke-miterlimit:10;" d="M 167.253906 173.914062 L 175.878906 170.09375 "/>
<path style="fill:none;stroke-width:1.2;stroke-linecap:butt;stroke-linejoin:miter;stroke:rgb(0%,0%,100%);stroke-opacity:1;stroke-miterlimit:10;" d="M 175.878906 170.09375 L 184.503906 166.269531 "/>
<path style="fill:none;stroke-width:1.2;stroke-linecap:butt;stroke-linejoin:miter;stroke:rgb(0%,0%,100%);stroke-opacity:1;stroke-miterlimit:10;" d="M 184.503906 166.269531 L 185.507812 156.890625 "/>
<path style="fill:none;stroke-width:1.2;stroke-linecap:butt;stroke-linejoin:miter;stroke:rgb(0%,0%,0%);stroke-opacity:1;stroke-miterlimit:10;" d="M 185.507812 156.890625 L 186.511719 147.507812 "/>
<path style="fill:none;stroke-width:1.2;stroke-linecap:butt;stroke-linejoin:miter;stroke:rgb(0%,0%,100%);stroke-opacity:1;stroke-miterlimit:10;" d="M 180.289062 163.921875 L 181.09375 156.417969 "/>
<path style="fill:none;stroke-width:1.2;stroke-linecap:butt;stroke-linejoin:miter;stroke:rgb(0%,0%,0%);stroke-opacity:1;stroke-miterlimit:10;" d="M 181.09375 156.417969 L 181.894531 148.910156 "/>
<path style=" stroke:none;fill-rule:nonzero;fill:rgb(100%,100%,100%);fill-opacity:1;" d="M 181.503906 160.769531 L 188.503906 160.769531 L 188.503906 171.769531 L 181.503906 171.769531 Z M 181.503906 160.769531 "/>
<g style="fill:rgb(0%,0%,100%);fill-opacity:1;">
  <use xlink:href="#glyph0-2" x="181.503906" y="169.432617"/>
</g>
<path style="fill:none;stroke-width:1.2;stroke-linecap:butt;stroke-linejoin:miter;stroke:rgb(0%,0%,0%);stroke-opacity:1;stroke-miterlimit:10;" d="M 186.511719 147.507812 L 178.886719 141.949219 "/>
<path style="fill:none;stroke-width:1.2;stroke-linecap:butt;stroke-linejoin:miter;stroke:rgb(0%,0%,100%);stroke-opacity:1;stroke-miterlimit:10;" d="M 178.886719 141.949219 L 171.265625 136.386719 "/>
<path style="fill:none;stroke-width:1.2;stroke-linecap:butt;stroke-linejoin:miter;stroke:rgb(0%,0%,0%);stroke-opacity:1;stroke-miterlimit:10;" d="M 186.511719 147.507812 L 195.136719 143.683594 "/>
<path style="fill:none;stroke-width:1.2;stroke-linecap:butt;stroke-linejoin:miter;stroke:rgb(100%,0%,0%);stroke-opacity:1;stroke-miterlimit:10;" d="M 195.136719 143.683594 L 203.765625 139.863281 "/>
<path style="fill:none;stroke-width:1.2;stroke-linecap:butt;stroke-linejoin:miter;stroke:rgb(0%,0%,100%);stroke-opacity:1;stroke-miterlimit:10;" d="M 171.265625 136.386719 L 162.636719 140.210938 "/>
<path style="fill:none;stroke-width:1.2;stroke-linecap:butt;stroke-linejoin:miter;stroke:rgb(0%,0%,0%);stroke-opacity:1;stroke-miterlimit:10;" d="M 162.636719 140.210938 L 154.011719 144.03125 "/>
<path style="fill:none;stroke-width:1.2;stroke-linecap:butt;stroke-linejoin:miter;stroke:rgb(0%,0%,100%);stroke-opacity:1;stroke-miterlimit:10;" d="M 171.339844 141.210938 L 164.4375 144.269531 "/>
<path style="fill:none;stroke-width:1.2;stroke-linecap:butt;stroke-linejoin:miter;stroke:rgb(0%,0%,0%);stroke-opacity:1;stroke-miterlimit:10;" d="M 164.4375 144.269531 L 157.535156 147.328125 "/>
<path style=" stroke:none;fill-rule:nonzero;fill:rgb(100%,100%,100%);fill-opacity:1;" d="M 168.265625 130.886719 L 175.265625 130.886719 L 175.265625 141.886719 L 168.265625 141.886719 Z M 168.265625 130.886719 "/>
<g style="fill:rgb(0%,0%,100%);fill-opacity:1;">
  <use xlink:href="#glyph0-2" x="168.265625" y="139.549805"/>
</g>
<path style="fill:none;stroke-width:1.2;stroke-linecap:butt;stroke-linejoin:miter;stroke:rgb(0%,0%,0%);stroke-opacity:1;stroke-miterlimit:10;" d="M 154.011719 144.03125 L 146.390625 138.472656 "/>
<path style="fill:none;stroke-width:1.2;stroke-linecap:butt;stroke-linejoin:miter;stroke:rgb(0%,0%,100%);stroke-opacity:1;stroke-miterlimit:10;" d="M 146.390625 138.472656 L 138.765625 132.914062 "/>
<path style="fill:none;stroke-width:1.2;stroke-linecap:butt;stroke-linejoin:miter;stroke:rgb(0%,0%,100%);stroke-opacity:1;stroke-miterlimit:10;" d="M 138.765625 132.914062 L 130.140625 136.734375 "/>
<path style="fill:none;stroke-width:1.2;stroke-linecap:butt;stroke-linejoin:miter;stroke:rgb(0%,0%,0%);stroke-opacity:1;stroke-miterlimit:10;" d="M 130.140625 136.734375 L 121.511719 140.558594 "/>
<path style="fill:none;stroke-width:1.2;stroke-linecap:butt;stroke-linejoin:miter;stroke:rgb(0%,0%,100%);stroke-opacity:1;stroke-miterlimit:10;" d="M 138.765625 132.914062 L 139.769531 123.53125 "/>
<path style="fill:none;stroke-width:1.2;stroke-linecap:butt;stroke-linejoin:miter;stroke:rgb(0%,0%,0%);stroke-opacity:1;stroke-miterlimit:10;" d="M 139.769531 123.53125 L 140.773438 114.148438 "/>
<path style=" stroke:none;fill-rule:nonzero;fill:rgb(100%,100%,100%);fill-opacity:1;" d="M 135.765625 127.414062 L 142.765625 127.414062 L 142.765625 138.414062 L 135.765625 138.414062 Z M 135.765625 127.414062 "/>
<g style="fill:rgb(0%,0%,100%);fill-opacity:1;">
  <use xlink:href="#glyph0-2" x="135.765625" y="136.077148"/>
</g>
<path style="fill:none;stroke-width:1.2;stroke-linecap:butt;stroke-linejoin:miter;stroke:rgb(0%,0%,0%);stroke-opacity:1;stroke-miterlimit:10;" d="M 122.820312 138.765625 L 115.199219 133.203125 "/>
<path style="fill:none;stroke-width:1.2;stroke-linecap:butt;stroke-linejoin:miter;stroke:rgb(100%,0%,0%);stroke-opacity:1;stroke-miterlimit:10;" d="M 115.199219 133.203125 L 107.574219 127.644531 "/>
<path style="fill:none;stroke-width:1.2;stroke-linecap:butt;stroke-linejoin:miter;stroke:rgb(0%,0%,0%);stroke-opacity:1;stroke-miterlimit:10;" d="M 120.203125 142.351562 L 112.582031 136.792969 "/>
<path style="fill:none;stroke-width:1.2;stroke-linecap:butt;stroke-linejoin:miter;stroke:rgb(100%,0%,0%);stroke-opacity:1;stroke-miterlimit:10;" d="M 112.582031 136.792969 L 104.957031 131.234375 "/>
<path style=" stroke:none;fill-rule:nonzero;fill:rgb(100%,100%,100%);fill-opacity:1;" d="M 98.265625 123.9375 L 106.265625 123.9375 L 106.265625 134.9375 L 98.265625 134.9375 Z M 98.265625 123.9375 "/>
<g style="fill:rgb(100%,0%,0%);fill-opacity:1;">
  <use xlink:href="#glyph0-1" x="98.265625" y="132.600586"/>
</g>
<path style="fill:none;stroke-width:1.2;stroke-linecap:butt;stroke-linejoin:miter;stroke:rgb(0%,0%,0%);stroke-opacity:1;stroke-miterlimit:10;" d="M 140.773438 114.148438 L 133.128906 96.898438 "/>
<path style="fill:none;stroke-width:1.2;stroke-linecap:butt;stroke-linejoin:miter;stroke:rgb(0%,0%,0%);stroke-opacity:1;stroke-miterlimit:10;" d="M 151.890625 98.902344 L 140.773438 114.148438 "/>
<path style="fill:none;stroke-width:1.2;stroke-linecap:butt;stroke-linejoin:miter;stroke:rgb(0%,0%,0%);stroke-opacity:1;stroke-miterlimit:10;" d="M 133.128906 96.898438 L 151.890625 98.902344 "/>
<path style="fill:none;stroke-width:1.2;stroke-linecap:butt;stroke-linejoin:miter;stroke:rgb(100%,0%,0%);stroke-opacity:1;stroke-miterlimit:10;" d="M 203.765625 139.863281 L 211.386719 145.421875 "/>
<path style="fill:none;stroke-width:1.2;stroke-linecap:butt;stroke-linejoin:miter;stroke:rgb(0%,0%,0%);stroke-opacity:1;stroke-miterlimit:10;" d="M 211.386719 145.421875 L 219.011719 150.980469 "/>
<path style=" stroke:none;fill-rule:nonzero;fill:rgb(100%,100%,100%);fill-opacity:1;" d="M 199.765625 134.363281 L 207.765625 134.363281 L 207.765625 145.363281 L 199.765625 145.363281 Z M 199.765625 134.363281 "/>
<g style="fill:rgb(100%,0%,0%);fill-opacity:1;">
  <use xlink:href="#glyph0-1" x="199.765625" y="143.026367"/>
</g>
<path style="fill:none;stroke-width:1.2;stroke-linecap:butt;stroke-linejoin:miter;stroke:rgb(0%,0%,0%);stroke-opacity:1;stroke-miterlimit:10;" d="M 219.011719 150.980469 L 217.003906 169.746094 "/>
<path style="fill:none;stroke-width:1.2;stroke-linecap:butt;stroke-linejoin:miter;stroke:rgb(0%,0%,0%);stroke-opacity:1;stroke-miterlimit:10;" d="M 223.226562 153.332031 L 221.621094 168.339844 "/>
<path style="fill:none;stroke-width:1.2;stroke-linecap:butt;stroke-linejoin:miter;stroke:rgb(0%,0%,0%);stroke-opacity:1;stroke-miterlimit:10;" d="M 236.261719 143.335938 L 219.011719 150.980469 "/>
<path style="fill:none;stroke-width:1.2;stroke-linecap:butt;stroke-linejoin:miter;stroke:rgb(0%,0%,0%);stroke-opacity:1;stroke-miterlimit:10;" d="M 217.003906 169.746094 L 232.25 180.863281 "/>
<path style="fill:none;stroke-width:1.2;stroke-linecap:butt;stroke-linejoin:miter;stroke:rgb(0%,0%,0%);stroke-opacity:1;stroke-miterlimit:10;" d="M 232.25 180.863281 L 249.503906 173.21875 "/>
<path style="fill:none;stroke-width:1.2;stroke-linecap:butt;stroke-linejoin:miter;stroke:rgb(0%,0%,0%);stroke-opacity:1;stroke-miterlimit:10;" d="M 232.175781 176.039062 L 245.980469 169.925781 "/>
<path style="fill:none;stroke-width:1.2;stroke-linecap:butt;stroke-linejoin:miter;stroke:rgb(0%,0%,0%);stroke-opacity:1;stroke-miterlimit:10;" d="M 249.503906 173.21875 L 251.507812 154.457031 "/>
<path style="fill:none;stroke-width:1.2;stroke-linecap:butt;stroke-linejoin:miter;stroke:rgb(0%,0%,0%);stroke-opacity:1;stroke-miterlimit:10;" d="M 249.503906 173.21875 L 257.125 178.78125 "/>
<path style="fill:none;stroke-width:1.2;stroke-linecap:butt;stroke-linejoin:miter;stroke:rgb(100%,0%,0%);stroke-opacity:1;stroke-miterlimit:10;" d="M 257.125 178.78125 L 264.75 184.339844 "/>
<path style="fill:none;stroke-width:1.2;stroke-linecap:butt;stroke-linejoin:miter;stroke:rgb(0%,0%,0%);stroke-opacity:1;stroke-miterlimit:10;" d="M 251.507812 154.457031 L 236.261719 143.335938 "/>
<path style="fill:none;stroke-width:1.2;stroke-linecap:butt;stroke-linejoin:miter;stroke:rgb(0%,0%,0%);stroke-opacity:1;stroke-miterlimit:10;" d="M 247.367188 156.933594 L 235.171875 148.035156 "/>
<path style="fill:none;stroke-width:1.2;stroke-linecap:butt;stroke-linejoin:miter;stroke:rgb(100%,0%,0%);stroke-opacity:1;stroke-miterlimit:10;" d="M 264.75 184.339844 L 263.746094 193.71875 "/>
<path style="fill:none;stroke-width:1.2;stroke-linecap:butt;stroke-linejoin:miter;stroke:rgb(0%,0%,0%);stroke-opacity:1;stroke-miterlimit:10;" d="M 263.746094 193.71875 L 262.742188 203.101562 "/>
<path style=" stroke:none;fill-rule:nonzero;fill:rgb(100%,100%,100%);fill-opacity:1;" d="M 260.75 178.839844 L 268.75 178.839844 L 268.75 189.839844 L 260.75 189.839844 Z M 260.75 178.839844 "/>
<g style="fill:rgb(100%,0%,0%);fill-opacity:1;">
  <use xlink:href="#glyph0-1" x="260.75" y="187.50293"/>
</g>
</g>
</svg>

<svg xmlns="http://www.w3.org/2000/svg" xmlns:xlink="http://www.w3.org/1999/xlink" width="300pt" height="300pt" viewBox="0 0 300 300"><defs><symbol overflow="visible"><path d="M.453 1.594v-7.938h4.5v7.938zm.5-.5h3.5v-6.938h-3.5zm0 0"/></symbol><symbol overflow="visible" id="a"><path d="M3.547-5.953c-.65 0-1.164.242-1.547.72-.375.48-.563 1.13-.563 1.952 0 .835.188 1.49.563 1.967.383.48.898.72 1.547.72.644 0 1.156-.24 1.53-.72.376-.476.564-1.132.564-1.968 0-.822-.187-1.474-.562-1.954-.375-.477-.887-.72-1.53-.72zm0-.734c.914 0 1.648.312 2.203.937.55.617.828 1.438.828 2.47 0 1.042-.277 1.87-.828 2.483-.555.617-1.29.922-2.203.922-.93 0-1.668-.305-2.22-.922C.774-1.41.5-2.237.5-3.28c0-1.033.273-1.853.828-2.47.55-.625 1.29-.938 2.22-.938zm0 0"/></symbol><symbol overflow="visible" id="b"><path d="M.89-6.563H2.08l2.906 5.485v-5.484h.86V0H4.656L1.75-5.484V0H.89zm0 0"/></symbol></defs><g><path fill="#fff" d="M0 0h300v300H0z"/><path d="M35.25 178.78l7.625 5.56" stroke-width="1.2" stroke="#000" stroke-miterlimit="10" fill="none"/><path d="M42.875 184.34l7.62 5.558M50.496 189.898l8.625-3.82" stroke-width="1.2" stroke="#f00" stroke-miterlimit="10" fill="none"/><path d="M59.12 186.078l8.63-3.824" stroke-width="1.2" stroke="#000" stroke-miterlimit="10" fill="none"/><path d="M46.496 184.398h8v11h-8zm0 0" fill="#fff"/><use xlink:href="#a" x="46.496" y="193.062" fill="#f00"/><path d="M67.75 182.254l2.004-18.762M72.363 180.852l1.606-15.012M82.996 193.375l-15.246-11.12M69.754 163.492l17.254-7.644M87.008 155.848l15.246 11.117M85.918 160.547l12.195 8.894M102.254 166.965l-2.004 18.765M102.254 166.965l17.254-7.645M100.25 185.73l-17.254 7.645M96.723 182.434l-13.8 6.117M119.508 159.32l7.62 5.563" stroke-width="1.2" stroke="#000" stroke-miterlimit="10" fill="none"/><path d="M127.13 164.883l7.624 5.558" stroke-width="1.2" stroke="#00f" stroke-miterlimit="10" fill="none"/><path d="M123.648 156.848l6.098 4.445" stroke-width="1.2" stroke="#000" stroke-miterlimit="10" fill="none"/><path d="M129.746 161.293l6.098 4.45" stroke-width="1.2" stroke="#00f" stroke-miterlimit="10" fill="none"/><path d="M121.512 140.56l-2.004 18.76" stroke-width="1.2" stroke="#000" stroke-miterlimit="10" fill="none"/><path d="M134.754 170.44l8.625-3.823" stroke-width="1.2" stroke="#00f" stroke-miterlimit="10" fill="none"/><path d="M143.38 166.617l8.628-3.82" stroke-width="1.2" stroke="#000" stroke-miterlimit="10" fill="none"/><path d="M131.754 164.94h7v11h-7zm0 0" fill="#fff"/><use xlink:href="#b" x="131.754" y="173.604" fill="#00f"/><path d="M152.008 162.797l15.246 11.117M156.148 160.32l12.196 8.895M154.012 144.03l-2.004 18.767M167.254 173.914l8.625-3.82" stroke-width="1.2" stroke="#000" stroke-miterlimit="10" fill="none"/><path d="M175.88 170.094l8.624-3.824M184.504 166.27l1.004-9.38" stroke-width="1.2" stroke="#00f" stroke-miterlimit="10" fill="none"/><path d="M185.508 156.89l1.004-9.382" stroke-width="1.2" stroke="#000" stroke-miterlimit="10" fill="none"/><path d="M180.29 163.922l.804-7.504" stroke-width="1.2" stroke="#00f" stroke-miterlimit="10" fill="none"/><path d="M181.094 156.418l.8-7.508" stroke-width="1.2" stroke="#000" stroke-miterlimit="10" fill="none"/><path d="M181.504 160.77h7v11h-7zm0 0" fill="#fff"/><use xlink:href="#b" x="181.504" y="169.433" fill="#00f"/><path d="M186.512 147.508l-7.625-5.56" stroke-width="1.2" stroke="#000" stroke-miterlimit="10" fill="none"/><path d="M178.887 141.95l-7.62-5.563" stroke-width="1.2" stroke="#00f" stroke-miterlimit="10" fill="none"/><path d="M186.512 147.508l8.625-3.824" stroke-width="1.2" stroke="#000" stroke-miterlimit="10" fill="none"/><path d="M195.137 143.684l8.63-3.82" stroke-width="1.2" stroke="#f00" stroke-miterlimit="10" fill="none"/><path d="M171.266 136.387l-8.63 3.824" stroke-width="1.2" stroke="#00f" stroke-miterlimit="10" fill="none"/><path d="M162.637 140.21l-8.625 3.82" stroke-width="1.2" stroke="#000" stroke-miterlimit="10" fill="none"/><path d="M171.34 141.21l-6.903 3.06" stroke-width="1.2" stroke="#00f" stroke-miterlimit="10" fill="none"/><path d="M164.438 144.27l-6.903 3.058" stroke-width="1.2" stroke="#000" stroke-miterlimit="10" fill="none"/><path d="M168.266 130.887h7v11h-7zm0 0" fill="#fff"/><use xlink:href="#b" x="168.266" y="139.55" fill="#00f"/><path d="M154.012 144.03l-7.62-5.557" stroke-width="1.2" stroke="#000" stroke-miterlimit="10" fill="none"/><path d="M146.39 138.473l-7.624-5.56M138.766 132.914l-8.625 3.82" stroke-width="1.2" stroke="#00f" stroke-miterlimit="10" fill="none"/><path d="M130.14 136.734l-8.628 3.825" stroke-width="1.2" stroke="#000" stroke-miterlimit="10" fill="none"/><path d="M138.766 132.914l1.004-9.383" stroke-width="1.2" stroke="#00f" stroke-miterlimit="10" fill="none"/><path d="M139.77 123.53l1.003-9.382" stroke-width="1.2" stroke="#000" stroke-miterlimit="10" fill="none"/><path d="M135.766 127.414h7v11h-7zm0 0" fill="#fff"/><use xlink:href="#b" x="135.766" y="136.077" fill="#00f"/><path d="M122.82 138.766l-7.62-5.563" stroke-width="1.2" stroke="#000" stroke-miterlimit="10" fill="none"/><path d="M115.2 133.203l-7.626-5.558" stroke-width="1.2" stroke="#f00" stroke-miterlimit="10" fill="none"/><path d="M120.203 142.352l-7.62-5.56" stroke-width="1.2" stroke="#000" stroke-miterlimit="10" fill="none"/><path d="M112.582 136.793l-7.625-5.56" stroke-width="1.2" stroke="#f00" stroke-miterlimit="10" fill="none"/><path d="M98.266 123.938h8v11h-8zm0 0" fill="#fff"/><use xlink:href="#a" x="98.266" y="132.601" fill="#f00"/><path d="M140.773 114.148l-7.644-17.25M151.89 98.902l-11.117 15.246M133.13 96.898l18.76 2.004" stroke-width="1.2" stroke="#000" stroke-miterlimit="10" fill="none"/><path d="M203.766 139.863l7.62 5.56" stroke-width="1.2" stroke="#f00" stroke-miterlimit="10" fill="none"/><path d="M211.387 145.422l7.625 5.558" stroke-width="1.2" stroke="#000" stroke-miterlimit="10" fill="none"/><path d="M199.766 134.363h8v11h-8zm0 0" fill="#fff"/><use xlink:href="#a" x="199.766" y="143.026" fill="#f00"/><path d="M219.012 150.98l-2.008 18.766M223.227 153.332l-1.606 15.008M236.262 143.336l-17.25 7.644M217.004 169.746l15.246 11.117M232.25 180.863l17.254-7.644M232.176 176.04l13.804-6.114M249.504 173.22l2.004-18.763M249.504 173.22l7.62 5.56" stroke-width="1.2" stroke="#000" stroke-miterlimit="10" fill="none"/><path d="M257.125 178.78l7.625 5.56" stroke-width="1.2" stroke="#f00" stroke-miterlimit="10" fill="none"/><path d="M251.508 154.457l-15.246-11.12M247.367 156.934l-12.195-8.9" stroke-width="1.2" stroke="#000" stroke-miterlimit="10" fill="none"/><path d="M264.75 184.34l-1.004 9.38" stroke-width="1.2" stroke="#f00" stroke-miterlimit="10" fill="none"/><path d="M263.746 193.72l-1.004 9.382" stroke-width="1.2" stroke="#000" stroke-miterlimit="10" fill="none"/><path d="M260.75 178.84h8v11h-8zm0 0" fill="#fff"/><use xlink:href="#a" x="260.75" y="187.503" fill="#f00"/></g></svg>
